X: 1
T: Koster Choad #2 (in G)
O: presented by Germaine H\`ebert
M: C|
L: 1/8
Z: John Chambers <jc@trillian.mit.edu> from Steve Gruverman's version
K: G
B \
| "G"AGFG ABc>B | cdBc "D"A2 AB | AGFG ABcB | AcBA "G"G2 G :|
|: "G"d2B2 "C"cde2 | "D7"c2A2 "G"Bcd2 | "G"d2Bd BdcB | "D7"AcBA "G"G2 Gz :|
